X: 27798
T: Morrison's
R: jig
M: 6/8
K: Edorian
|:"Em"E2 EB2 B|E2 E "D"AFD|"Em"E2 EB2 B|dBA "D"FED|
"Em"E2 EB2 B|E2 E "D"AFD|"Em"G2 GF2 A|"D"dAG FED:|
"Em"B2 ef2 e|a2 e fed|B2 ef2 f|"G"fag "D"fed|
"Em"B2 ef2 e|a2 e fed|"G"gfe "D"d2 A|"C"BAG "D"FGA|
"Em"B2 ef2 e|a2 e fed|B2 ef2 f|"D"faf def|
"G"g2 gf2 e|"D"def "G"g2 d|"Bm"edc d2 A|"C"BAG "D"FED|

